**kern
*clefF4
*k[]
*M4/4
=1
*^
2r	1FF 1AA 1C
4r	.
[4F	.
=2	=2
4F]	2.CC 2.GG 2.C
8EL	.
8DJ	.
4E	.
4r	4r
=3||	=3||
*	*^
2r	1C 1E	2r
4r	.	2CC\
[4G	.	.
*	*v	*v
=4	=4
4G]	1FF 1AA 1D
4D	.
2F	.
=5||	=5||
*	*^
2r	2r	1FF
[2A	4r	.
.	4C 4F	.
=6	=6	=6
4A]	2.C 2.E	1GG
4c	.	.
2G	.	.
.	4BB 4D	.
*	*v	*v
=7||	=7||
2r	1DD 1AA
[2D [2F	.
=8	=8
2D] 2F]	1EE 1GG
2C 2E	.
=9||	=9||
1BBB [1D [1F	2r
.	2D
!!linebreak:original
=10	=10
2D] 2F]	1CC 1GG
2C 2E	.
*v	*v
==
*-
!!!system-decoration: [(s1
